!!!!SEGMENT: pl-sa--l-1636--115_anonim--credo.krn
!!!cenid: 17xx:822
!!!COM: Anonim
!!!COM-rismid: pe30004985
!!!CDT:
!!!CNT:
!!!OTL: Credo
!!!PDT:
!!!AGN: Sacred; Mass section
!!!SMS-siglum: PL-SA
!!!SMS-shelfmark: L 1636
!!!SMS-shelfwork: 115 W
!!!SMS-variant:
!!!SMS-altvar:
!!!NIFC-rismid: 1001100398
!!!system-decoration: [(s1)]s2
!!!key:
**kern	**kern	**text
*part2	*part1	*part1
*staff2	*staff1	*staff1
*Iorgan	*Ivox	*
*I"Organo	*I"Canto	*
*I'Org.	*I'C.	*
*clefF4	*clefC1	*
*k[]	*k[]	*
*d:	*d:	*
*M2/2	*M2/2	*
*met(c|)	*met(c|)	*
*MM200	*MM200	*
=1	=1	=1
*2\right	*2\right	*
!LO:TX:a:t=P:problem=wszystkie nuty mają caudy z prawej strony	!LO:TX:a:t=P:problem=wszystkie nuty mają caudy z prawej strony	!
!LO:TX:a:t=P:problem=w źródle niejednoznaczny symbol po metrum na 4 polu	!	!
1D	2dd\	Pa-
.	2a\	-trem
2D/	2dd\	O-
8AA/L	4cc\	-mni-
8BB/	.	.
8C/	4cc\	-po-
8D/J	.	.
!LO:TX:a:t=P:problem=mixed beam	!	!
8E\L	2b\	-ten-
8D\	.	.
8E\	.	.
8EE/J	.	.
!LO:SIC:s=4AA:v	!	!
2AA#i/	2a\	-tem
=2	=2	=2
4.F\	2a\	Fa-
8E\	.	.
4D/	2f/	-cto-
8C/L	.	.
8BB/J	.	.
1AA	1e	-re(m)
=3	=3	=3
4D/	4f/	Cae-
4C/	4e/	-li
4BB-X/	4d/	et
4AA/	4c#X/	ter-
!	!LO:SIC:l:s=-rae	!
1D	1d	-re
=4	=4	=4
4.AA/	2e/	Vi-
8BB/	.	.
2C#X/	2e/	-si-
4.E\	2g/	-bi-
8D\	.	.
2C#/	2g/	-li-
1D	1f	-um
!!LO:LB:g=original
=5	=5	=5
8D/L	2f/	O-
8C/	.	.
8BB/	.	.
8AA/J	.	.
4GG/	2g/	-mni-
4C/	.	.
1FF	1a	-um
=6	=6	=6
2F\	4a\	et
.	4a\	in
8D\L	4f/	vi-
8E\	.	.
8F\	4f/	-si-
8G\J	.	.
4A\	2e/	-bi-
4G\	.	.
4A\	2e/	-li-
4AA/	.	.
1D	1d	-um
=7	=7	=7
2A\	2e/	Et
2C/	2e/	in
4.E\	2g/	u-
8D\	.	.
2C#X/	2g/	-num
4D/	2f/	Do-
4FF/	.	.
4GG/	2g/	-mi-
4C#/	.	.
1FF	1a	-nu(m)
=8	=8	=8
2G\	2b\	Je-
2E\	2cc#X\	-sum
!!LO:LB:g=original
1D	2dd\	Chri-
.	2dd\	.
=9	=9	=9
2D/	2dd\	-stum
8AA/L	4ccn\	Fi-
8BB/	.	.
8C/	4cc\	-li
8D/J	.	.
!LO:TX:a:t=P:problem=mixed beam	!	!
8E\L	2b\	De-
8D\	.	.
8E\	.	.
8EE/J	.	.
2AA/	2a\	-i
=10	=10	=10
2F\	4a\	U-
.	4a\	-ni
8D\L	4f/	ge-
8E\	.	.
8F\	4f/	-ni-
8G\J	.	.
2A\	1e	-tu(m)
2AA/	.	.
=11	=11	=11
2F/	4a\	Et
.	4a\	ex
2D/	4f/	Pa-
.	4f/	-tre
2GG/	1e	na-
2AA/	.	.
1D	1d	-tum
!!LO:PB:g=original
=12	=12	=12
4AA/	2e/	an-
4BB/	.	.
4C#X/	2e/	-te
4AA/	.	.
4E\	2g/	om-
4D/	.	.
4C#X/	2g/	-ni-
4AA/	.	.
1D	1f	-a
=13	=13	=13
*	*lig	*
1C 1FF	1a	Sa(e)-
2BB/	1f	.
2GG/	.	.
*	*Xlig	*
4AA/	2e/	-cu-
4GG/	.	.
4AA/	2e/	-la
4C#X/	.	.
1D	1d	.
=14	=14	=14
1A	2a\	De-
.	2a\	-um
2G\	2bn\	de
2E\	2cc#X\	De-
4D\	2dd\	-o
4E\	.	.
4F\	4dd\	lu-
4D\	4dd\	-men
4G\	2ee\	de
4E\	.	.
4A\	4ee\	lu-
4AA/	4ee\	-mi-
1D	1dd	-ne
!!LO:LB:g=original
=15	=15	=15
2D/	2dd\	De-
8AA/L	2ccn\	-um
8BB/	.	.
8C/	.	.
8D/J	.	.
4E\	2b\	ve-
4EE/	.	.
!LO:TX:a:t=P:problem=w źródle nieczytelny zapis	!	!
2AA/	2a\	-ru(m)
!LO:TX:a:t=P:problem=w źródle nieczytelny zapis	!	!
2FF/	2a\	de
8D\L	2f/	De-
8E\	.	.
8F\	.	.
8G\J	.	.
!	!LO:TX:a:t=P:problem=W źródle nad nutą 1e tak jakby jeszcze nuta 1b	!
1A	1e	-o
=16	=16	=16
*	*lig	*
1F	1a	Ve-
2D\	1f	.
2GG/	.	.
*	*Xlig	*
1AA	1e	-ro
!LO:SIC:s=1D:v	!	!
1C	1d	.
=17	=17	=17
4AA/	2e/	ge-
4BB/	.	.
4C#X/	2e/	-ni-
4AA/	.	.
4E\	2g/	-tum
4D\	.	.
4C#i/	2g/	.
4AA/	.	.
1D	1f	fa-
!LO:N:vis=2	!	!
1DD	1f	-ctum
!!LO:LB:g=original
=18	=18	=18
2F\	4a\	Con-
.	4a\	-ſub-
8D\L	(>4f/	-ſtan-
8E\	.	.
8F\	4f/)	-ti-
8G\J	.	.
4A\	2e/	-a-
4G\	.	.
4F\	2e/	-le(m)
4G\	.	.
4A\	1e	Pa-
4G\	.	.
4A\	.	.
4AA/	.	.
1D	1d	-tri
=19	=19	=19
4C#Xi/	2e/	per
4BB/	.	.
4AA/	2e/	(quem)
4C#/	.	.
4E\	2g/	o-
4C#\	.	.
4D\	2g/	-(mn)i-
4E\	.	.
4D\	1f	-a
4C#\	.	.
4D\	.	.
4E\	.	.
=20	=20	=20
*	*lig	*
!	!LO:N:vis=1	!
4F\	2a\	fa-
4E\	.	.
!	!LO:N:vis=1	!
4D\	2f/	-cta
4BB/	.	.
*	*Xlig	*
4AA/	2e/	.
4GG/	.	.
4AA/	2e/	ſunt
4C#X/	.	.
1D	1d	.
=21	=21	=21
8D\L	2dd\	Qui
8E\	.	.
8F\	.	.
8G\J	.	.
!LO:TX:b:t=P:problem=mixed beam	!	!
8A\L	2cc\	pro-
8AA\	.	.
!LO:TX:a:t=P:problem=nieczytelne źródło	!	!
8BB\	.	.
8C\Jyy	.	.
!!LO:LB:g=original
!LO:TX:b:t=P:problem=mixed beam	!	!
8E\L	2b\	-pter
8D\	.	.
8E\	.	.
!LO:TX:a:t=P:problem=nieczytelne źródło	!	!
8EE/Jyy	.	.
2AA/	2a\	nos
=22	=22	=22
4FF/	2a\	ho-
4F\	.	.
8D\L	2f/	-mi-
8E\	.	.
8F\	.	.
8G\J	.	.
!LO:TX:a:t=P:problem=nieczytelne źródło	!	!
2A\	1e	-nes
2AA/	.	.
=23	=23	=23
2FF/	2a\	et
8D\L	4f/	pro-
8E\	.	.
8F\	4f/	-pter
8G\J	.	.
4A\	2e/	no-
4AA/	.	.
2D/	2d/	-stram
8D/L	2f/	ſa-
8C/	.	.
8BB/	.	.
8AA/J	.	.
8GG/L	2g/	-lu-
8C/	.	.
8BB/	.	.
8C/J	.	.
1FF	1a	-te(m)
=24	=24	=24
2G\	2b\	des-
2E\	2cc-X\	-cen-
4D\	2dd\	-dit
4E\	.	.
4F\	2dd\	de
4G\	.	.
!	!LO:TX:a:t=P:problem=w źródle nieczytelny tekst	!
!	!LO:N:vis=1	!
4A\	2ee\	cae-
4B\	.	.
!LO:TX:a:t=P:problem=nieczytelne źródło	!	!
!	!LO:N:vis=1	!
4An\	2dd\	-lis
4AA/	.	.
!!LO:PB:g=original
=25	=25	=25
2D/	2dd\	Et
8AA/L	4cc\	in-
8BB/	.	.
8C/	4cc\	-Car-
8D/J	.	.
4E\	2b\	-na-
4EE/	.	.
2AA/	2a\	-tus
2F\	4a\	est
.	4a\	de
8D\L	2f/	ſpi-
8E\	.	.
8F\	.	.
8G\J	.	.
2A\	2e/	-ri-
2AA/	2e/	-tu
=26	=26	=26
*	*lig	*
1FF	1a	San-
2BB-X/	1f	.
2GG/	.	.
*	*Xlig	*
1AA	1e	-cto
1D	1d	.
=27	=27	=27
*	*lig	*
1A	1a	Ex
!	!LO:N:vis=1	!
2G\	2b\	Ma-
!	!LO:N:vis=1	!
2E\	2cc\	.
!	!LO:N:vis=1	!
2D/	2dd\	-ri-
!	!LO:N:vis=1	!
2BB/	2dd\	.
1AA	1ee	.
*	*Xlig	*
!!LO:LB:g=original
2D/	2dd\	-a
2BB/	2ff\	Vir-
2GG/	2.ee\	.
2AA/	.	.
.	4ee\	-gi-
1D	1dd	-ne
=28	=28	=28
*	*lig	*
1D	1dd	Et
4AA/	1cc	.
4BB/	.	.
4C/	.	.
4D/	.	.
*	*Xlig	*
4E\	2b\	Ho-
4EE/	.	.
2AA/	2a\	-mo
*	*lig	*
1FF	1a	fa-
2D/	1f	.
2BB/	.	.
*	*Xlig	*
1AA	1e	-ctus
*	*lig	*
1FF	1a	est
4GG/	1f	.
4AA/	.	.
4BB/	.	.
!LO:TX:a:t=P:problem=nieczytelne źródło	!	!
4AA/	.	.
*	*Xlig	*
4AA/	2d/	.
4GG/	.	.
2AA/	2e/	.
1D	1d	.
=29	=29	=29
1AA	1e	Cru-
2C#X/	2g/	-ci-
2AA/	2g/	-fi-
!!LO:LB:g=original
1D	1f	-xus
*	*lig	*
1F	1a	e-
1D	1f	-ti-
*	*Xlig	*
2GG/	4e/	-am
.	4e/	.
2AA/	2e/	pro-
1D	2d/	-no-
.	2d/	-bis
=30	=30	=30
4AA/	1e	ſub
4BB/	.	.
4C/	.	.
4AA/	.	.
4E\	2g/	Pon-
4D\	.	.
4C/	2g/	-ti-
4AA/	.	.
1DD	1f	-o
4D/	2f/	Pi-
4BB/	.	.
4C/	2g/	-la-
4CC/	.	.
1FF	1a	-to
=31	=31	=31
2FF/	4a\	Paſ-
.	4a\	-sus
8D\L	4f/	et
8E\	.	.
8F\	4f/	ſe-
8G\J	.	.
4A\	2e/	-pul-
4G\	.	.
4A\	2e/	-tus
4AA/	.	.
1D	1d	est
!!LO:LB:g=original
=32	=32	=32
4D/	2dd\	Et
4BB/	.	.
8AA/L	4cc\	Re-
8BB/	.	.
8C/	4cc\	-sur-
8D/J	.	.
4E\	2b\	-re-
4EE/	.	.
2AA/	2a\	-xit
2FF/	2a\	ter-
8D\L	4f/	-ti-
8E\	.	.
8F\	4f/	-a
8G\J	.	.
!	!LO:TX:a:t=P:problem=nieczytelny tekst	!
4A\	2e/	di-
4AA/	.	.
2D/	2d/	-e
=33	=33	=33
4D/	2f/	ſe-
4C/	.	.
4BB/	2g/	-cun-
4C/	.	.
1FF	1a	-d(um)
=34	=34	=34
4G\	2b\	ſcri-
4F#Xi\	.	.
4E\	2cc#X\	-ptu-
4A\	.	.
1D	1dd	-ras
!!LO:PB:g=original
=35	=35	=35
1A	1a	Et
2G\	2b\	as-
2E\	2cc#X\	-cen-
4D\	2dd\	-dit
4E\	.	.
4F\	2dd\	in
4G\	.	.
!	!LO:SIC:s=Coe-:v	!
2A\	1ee	Ce-
2AA/	.	.
1D	1dd	-lum
=36	=36	=36
2D/	2dd\	ſe-
2A\	2cc\	-det
2E\	2b\	ad
2GG/	2cc\	dex-
2F\	2a\	-te-
2C/	2g\	-ra(m)
2F\	2a\	Pa-
2D/	2f/	-tris
!!LO:LB:g=original
=37	=37	=37
4E\	2g/	Et
4C#Xi\	.	.
!	!LO:SIC:l:s=in-:v	!
8D\L	2f/	i-
8E\	.	.
8F\	.	.
8G\J	.	.
4A\	2e/	-te-
!LO:TX:a:t=P:problem=w źródle nieczytelny zapis	!	!
4AA/	.	.
2D/	2d/	-rum
*	*lig	*
!	!LO:N:vis=1	!
2D/	2f/	Ven-
!	!LO:N:vis=1	!
2F\	2a\	.
2BB/	1f	.
2GG/	.	.
*	*Xlig	*
2A\	2e/	-tu-
!	!LO:SIC:s=-rus:v	!
2AA/	2e/	-ru
1D	[<2d/	eſt
.	2d/]	.
=38	=38	=38
1C#X	1e	Cum
2E\	2g/	glo-
4C#/	2g/	-ri-
4AA/	.	.
1D	1f	-a
=39	=39	=39
*	*lig	*
!	!LO:N:vis=1	!
2F\	2a\	Iu-
4D\	1f	-di-
4E\	.	.
4F\	.	.
4G\	.	.
*	*Xlig	*
2A\	2e/	-ca-
2AA/	2e/	.
1D	1d	-re
!!LO:LB:g=original
=40	=40	=40
1C#X	1e	Vi-
1E	1g	-vos
1D	1f	et
*	*lig	*
1F	1a	Mor-
2D\	1f	.
2E\	.	.
*	*Xlig	*
2F\	2e/	.
4A\	2e/	-tu-
4AA/	.	.
1D	1d	-os
=41	=41	=41
4D/	2dd\	Cu-
4BB/	.	.
8AA/L	2cc\	-ius
8BB/	.	.
8C/	.	.
8D/J	.	.
4E\	2b\	.
4EE/	.	.
2AA/	2a\	.
*	*lig	*
1FF	1a	non
2BB/	1f	.
2FF/	.	.
*	*Xlig	*
1AA	1e	.
*	*lig	*
1F	1a	.
2D/	1f	.
2BB/	.	.
*	*Xlig	*
2GG/	4e/	e-
.	4e/	-rit
2AA/	2d/	fi-
1D	1d	-nis
!!LO:LB:g=original
=42	=42	=42
!LO:SIC:s=2D:v	!	!
2C/	2dd\	Et
8AA/L	2cc\	in
8BB/	.	.
8C/	.	.
8D/J	.	.
4E\	4b\	ſpi-
4EE/	4b\	-ri-
2AA/	2a\	-tum
!	!LO:TX:a:t=P:problem=w źródle nieczytelny tekst	!
2F\	4a\	ſan-
.	4a\	-ctum
2D/	2f/	Do-
4AA/	4d/	-mi-
4BB/	4e/	.
4C#X/	2e/	-nu(m)
4AA/	.	.
=43	=43	=43
2E\	2g/	et
4C#X/	2e/	vi-
4AA/	.	.
1D	1d	-vi-
!LO:TX:a:t=P:problem=w źródle nieczytelny zapis	!	!
2D	2f/	-fi-
!LO:SIC:s=4Cn:v	!	!
4C#/	2g/	-can-
4CC/	.	.
1FF	1a	-tem
!!LO:PB:g=original
=44	=44	=44
2G\	2b\	qui
2D/	2dd\	ex
2A\	2cc#X\	Pa-
2F\	4a\	-tre
.	4a\	et
2G\	2b\	Fi-
2E\	2cc#X\	-li-
4D\	2dd\	-o-
4E\	.	.
4F\	2dd\	-(que)
4G\	.	.
4A\	2.ee\	pro-
4G\	.	.
4A\	.	.
4AA/	4ee\	-ce-
1D	1dd	-dit
=45	=45	=45
2D/	2dd\	qui
4A\	2cc\	cu(m)
4AA/	.	.
4E\	2b\	Pa-
4EE/	.	.
2AA/	2a\	-tre
!!LO:LB:g=original
2FF/	2a\	fi-
4BB/	2f/	-li-
4GG/	.	.
1AA	2e/	-o
.	2e/	.
2F\	4a\	ſi-
.	4a\	-mul
8D\L	4f/	ad-
8E\	.	.
8F\	4f/	-o-
8G\J	.	.
2A\	1e	-ra-
2AA/	.	.
1D	1d	-tur
=46	=46	=46
2A\	1a	et
2AA/	.	.
!	!LO:SIC:l:s=con-:v	!
2G\	2b\	cum-
2E\	2cc#X\	-glo-
4D\	2dd\	-ri-
4E\	.	.
4F\	2dd\	-fi-
4G\	.	.
4A\	1ee	-ca-
8B\L	.	.
!LO:TX:a:t=P:problem=w źródle nad nuta 8G tak jakby nuta 8c	!	!
8G\J	.	.
4A\	.	.
4AA/	.	.
1D	1dd	-tur
!!LO:LB:g=original
=47	=47	=47
4D/	2dd\	Qui
4BB/	.	.
2AA/	2cc\	lo-
4E\	2b\	-cu-
4EE/	.	.
2AA/	2a\	-tus
*	*lig	*
1FF	1a	est
4D\	1f	.
4E\	.	.
4F\	.	.
4G\	.	.
*	*Xlig	*
1A	1e	per
=48	=48	=48
*	*lig	*
1FF	1a	.
4GG/	1f	.
4AA/	.	.
4BB/	.	.
4GG/	.	.
*	*Xlig	*
4A\	2e/	pro-
4G\	.	.
4A\	2e/	-fe-
4AA/	.	.
1D	1d	-tas
=49	=49	=49
4AA/	2e/	Et
4BB/	.	.
4C#X/	2e/	u-
4AA/	.	.
4E\	2g/	-nam
4D\	.	.
4E\	2g/	ſan-
4C#Xi\	.	.
1D	1f	-ctam
!!LO:LB:g=original
=50	=50	=50
*	*lig	*
1F	1a	Ca-
2D/	1f	.
2FF/	.	.
*	*Xlig	*
1AA	2e/	-tho-
.	2e/	-li-
1D	1d	-cam
=51	=51	=51
4E\	2e/	et
4D\	.	.
4C#X/	2e/	a-
4AA/	.	.
!LO:TX:a:t=P:problem=w źródle krzyżyk pod nutą	!	!
4C#Xi/	2g/	-po-
4D/	.	.
4E\	2g/	-ſto-
!LO:TX:a:t=P:problem=w źródle krzyżyk pod nutą	!	!
4C#Xi/	.	.
4D\	2f/	-li-
4C#Xi\	.	.
4D\	2f/	-cam
4E\	.	.
*	*lig	*
1F	1a	Ec-
!LO:TX:a:t=P:problem=w źródle nieczytelny zapis	!	!
1Dyy	1f	.
*	*Xlig	*
2GG/	2e/	-cle-
2AA/	2e/	-si-
1D	1d	-am
!LO:TX:a:Bi:t=Verte	!LO:TX:a:Bi:t=Confite	!
!!LO:PB:g=original
=52	=52	=52
2D/	2dd\	Con-
8AA/L	2cc\	-fi-
8BB/	.	.
8C/	.	.
8D/J	.	.
4E\	2b\	-te-
4EE/	.	.
2FF/	2a\	-or
2D/	2a\	U-
!LO:N:vis=4	!	!
2GG/	4f/	-num
.	4f/	bap-
!LO:N:vis=4	!	!
2AA/	2e/	-tis-
2D/	2d/	-ma
4D/	2f/	in
8BB-X/L	.	.
8GG/J	.	.
4C/	2g/	re-
4EE/	.	.
1FF	1a	-miſ-
=53	=53	=53
2G\	2b\	-si-
2E\	2cc#X\	-o-
4D\	2dd\	-nem
4E\	.	.
4F\	2dd\	pec-
4G\	.	.
4A\	2ee\	-ca-
8B\L	.	.
8G\J	.	.
4A\	2ee\	-to-
4AA/	.	.
1D	1dd	-rum
!!LO:LB:g=original
=54	=54	=54
4D/	2dd\	et
4BB/	.	.
4A\	2cc\	ex-
!LO:TX:a:t=P:problem=w źródle nieczytelny zapis	!	!
4AA/	.	.
4E\	2b\	-pec-
4EE/	.	.
2AA/	2a\	-to
4F\	4a\	re-
4FF/	4a\	-ſur-
8D\L	4f/	-re-
8E\	.	.
8F\	4f/	-cti-
8G\J	.	.
2A\	2e/	-o-
2AA/	2e/	-ne(m)
2E\	1g	.
2D/	.	.
*	*lig	*
2C#X/	1f	mo-
2D/	.	.
2BB/	1d	.
2GG/	.	.
*	*Xlig	*
4F\	2f/	-rtu-
4D\	.	.
4C#\	2g\	-o-
4CC/	.	.
1FF	1a	-rum
=55	=55	=55
2G\	2b\	Et
2D/	2dd\	Vi-
2A\	2cc\	-tam
2F\	2a\	Ven-
!!LO:LB:g=original
2FF/	4a\	-tu-
.	4a\	-ri
8D\L	2f/	ſae-
8E\	.	.
8F\	.	.
8G\J	.	.
4A\	2e/	-cu-
4G\	.	.
4A\	2e/	-li
4AA/	.	.
4E\	2g/	A-
4C#Xi/	.	.
4D\	2f/	.
4F\	.	.
1D	1d	.
4D/	(<2f/	.
4C#/	.	.
4BB/	2g/)	.
4C#/	.	.
1FF	[>2a\	men
.	2a\]	.
=56	=56	=56
*	*lig	*
1G	1b	A-
1D	1dd	.
1A	1cc	.
1AA	1a	.
1FF	1a	.
1D	1f	.
*	*Xlig	*
1A	1e	.
1FF	1a	.
4GG/	1f	.
4AA/	.	.
4BB/	.	.
4GG/	.	.
1C	1e	-men
==	==	==
*-	*-	*-
!!title: @{OTL};
!!!RDF**kern: > = above
!!!RDF**kern: < = below
!!!RDF**kern: i = editorial accidental
!!!EED: Wojciech Jakubiak-Danek
!!!EST: 2020-12-09
!!!URL-scan: http://repozytorium.nifc.pl/skany/pl-sa-nut--l1636
!!!ONB-nifc: 62r-64v, skan 0049 (s. 6)-0052 (s. 3)
!!!AIN: 1 organ 1 vox
!!!ENC: Anastazja Marusiak
!!!END: 2020-06-26
